src/Assets/Icons/ResidentWhiteIcon.svg

<svg width="232" height="52" viewBox="0 0 232 52" fill="none" xmlns="http://www.w3.org/2000/svg">
<path d="M4.94283 42.0216C3.27482 41.0553 1.70088 40.1429 0.0231154 39.1703C0.0231154 38.7495 0.0231244 38.3156 0.0231154 37.8816C0.023043 30.0931 0.0416897 22.3044 7.12856e-05 14.5161C-0.00535562 13.5004 0.298227 12.9556 1.2019 12.4417C8.00222 8.5737 14.7719 4.65141 21.5251 0.701608C22.3198 0.236771 22.9114 0.256076 23.679 0.703017C30.526 4.68941 37.3896 8.64729 44.2533 12.605C44.7884 12.9136 45.2059 13.2133 45.2036 13.9427C45.1832 20.3488 45.1918 26.7551 45.1918 33.316C44.7971 33.1601 44.4911 33.0757 44.2211 32.9264C42.6716 32.0695 41.1455 31.169 39.581 30.341C38.717 29.8838 38.3229 29.3333 38.3496 28.2725C38.4353 24.8733 38.3656 21.4705 38.3967 18.0694C38.4033 17.3495 38.1932 16.9158 37.5418 16.5439C32.5877 13.7151 27.6569 10.8456 22.5993 7.91974C17.4038 10.9279 12.1803 13.9523 6.9029 17.0079C6.88537 17.3539 6.85372 17.6902 6.85352 18.0265C6.85042 23.3503 6.8786 28.6744 6.82646 33.9977C6.81698 34.9653 7.10574 35.5009 7.94715 35.9784C12.8222 38.7447 17.6643 41.569 22.593 44.4173C23.542 43.8677 24.5 43.3702 25.3954 42.7779C26.2248 42.2293 26.9096 42.1556 27.8143 42.7392C29.5406 43.8527 31.3703 44.8059 33.3618 45.9426C32.7451 46.3249 32.3484 46.5841 31.9395 46.8222C29.1756 48.431 26.3917 50.0065 23.6547 51.6596C22.8652 52.1364 22.2796 52.0969 21.4982 51.6377C16.0274 48.4226 10.5275 45.2569 4.94283 42.0216Z" fill="white"/>
<path d="M37.5276 41.5481C32.8271 38.8456 28.2391 36.1684 23.6131 33.5585C22.7384 33.065 22.3087 32.5544 22.3727 31.4997C22.4711 29.8799 22.4464 28.2477 22.3791 26.6247C22.3403 25.6866 22.5619 25.088 23.4786 24.6461C24.7082 24.0533 25.8444 23.2668 27.2187 22.4451C25.6013 21.4945 24.142 20.637 22.5635 19.7093C20.997 20.6145 19.3923 21.5419 17.6977 22.5211C17.6977 27.0271 17.6977 31.5477 17.6977 36.1829C17.3085 36.1352 17 36.1797 16.7855 36.0583C14.8592 34.968 12.9531 33.8422 11.0323 32.7422C10.5484 32.4651 10.3734 32.0851 10.3755 31.5347C10.3909 27.4457 10.3932 23.3566 10.3779 19.2676C10.3758 18.7067 10.5804 18.3492 11.0566 18.0748C14.6355 16.0135 18.2094 13.9435 21.7805 11.8685C22.2966 11.5687 22.7549 11.5522 23.2949 11.8668C26.864 13.9464 30.4449 16.0057 34.0321 18.0539C34.534 18.3405 34.6634 18.7234 34.6568 19.2669C34.6329 21.2373 34.6162 23.2088 34.6626 25.1783C34.6795 25.8938 34.3563 26.2127 33.7794 26.5282C32.3726 27.2978 31.0076 28.1436 29.3682 29.1106C34.7465 32.2282 39.8965 35.2134 45.2779 38.3328C44.2274 38.9556 43.4422 39.4262 42.6519 39.8882C41.6328 40.484 40.5607 41.0041 39.604 41.6866C38.8492 42.2251 38.2633 42.122 37.5276 41.5481Z" fill="white"/>
<path d="M71.7345 38.2217C71.7344 36.3045 71.7459 34.5297 71.7307 32.7551C71.7162 31.0693 71.203 30.5405 69.5286 30.5247C67.3157 30.5037 65.1025 30.5195 62.726 30.5195C62.726 33.9862 62.726 37.3552 62.726 40.7985C60.808 40.7985 59.0524 40.7985 57.2936 40.7985C56.9761 39.7805 56.8378 16.155 57.1454 12.9806C57.4937 12.9422 57.8666 12.8663 58.2398 12.8654C61.8878 12.8562 65.5377 12.7887 69.1832 12.8834C71.7164 12.9492 74.1585 13.4083 76.0717 15.3679C79.2827 18.6568 78.6672 24.4962 74.8063 26.9478C74.5381 27.1181 74.2901 27.32 74.0564 27.4899C74.1132 27.6375 74.1237 27.7192 74.1497 27.7245C76.4164 28.1853 77.3108 29.7528 77.3499 31.8776C77.4025 34.7348 77.3477 37.5941 77.3322 40.4525C77.3317 40.538 77.2552 40.6231 77.1738 40.7921C75.4598 40.7921 73.7041 40.7921 71.7344 40.7921C71.7344 39.9945 71.7344 39.1793 71.7345 38.2217ZM64.8692 17.8885C64.1555 17.8997 63.4418 17.9109 62.7448 17.9219C62.7448 20.5356 62.7448 22.9309 62.7448 25.4558C64.9709 25.4558 67.1219 25.4671 69.2725 25.444C69.6056 25.4404 69.9452 25.3022 70.2677 25.187C71.6987 24.6757 72.7529 23.1324 72.6166 21.6203C72.4212 19.4518 71.4222 18.3226 69.8499 18.1246C68.2998 17.9294 66.7216 17.9581 64.8692 17.8885Z" fill="white"/>
<path d="M81.4795 24.0676C81.4795 20.2808 81.4795 16.6419 81.4795 12.9385C87.553 12.9385 93.4991 12.9385 99.5452 12.9385C99.5452 14.5417 99.5452 16.1393 99.5452 17.8604C95.4942 17.8604 91.425 17.8604 87.239 17.8604C87.239 20.0572 87.239 22.1354 87.239 24.3193C90.959 24.3193 94.6403 24.3193 98.3902 24.3193C98.3902 26.0263 98.3902 27.6294 98.3902 29.3469C94.6482 29.3469 90.9708 29.3469 87.2082 29.3469C87.2082 31.5524 87.2082 33.6441 87.2082 35.841C91.3912 35.841 95.5183 35.841 99.7395 35.841C99.7395 37.5326 99.7395 39.1205 99.7395 40.7985C93.7013 40.7985 87.7102 40.7985 81.6813 40.7985C81.6804 40.7979 81.6339 40.78 81.6061 40.7465C81.5756 40.7099 81.5447 40.6589 81.5445 40.6141C81.5209 35.1479 81.5003 29.6818 81.4795 24.0676Z" fill="white"/>
<path d="M122.55 26.6384C126.298 30.6456 125.165 37.0284 120.171 39.3763C115.882 41.3924 111.447 41.2894 107.269 38.9122C104.538 37.3579 103.298 34.7786 103.099 31.6851C103.062 31.0971 103.094 30.5046 103.094 29.812C104.878 29.812 106.622 29.812 108.474 29.812C108.493 30.1728 108.524 30.5507 108.532 30.9291C108.582 33.4824 109.871 35.1297 112.376 35.5956C114.136 35.9232 115.919 35.9036 117.561 35.0105C119.184 34.128 119.813 32.1769 118.854 30.7642C118.489 30.2271 117.899 29.7268 117.3 29.4897C116.075 29.004 114.77 28.7188 113.504 28.3306C111.676 27.7699 109.795 27.3305 108.041 26.59C104.645 25.1558 103.613 22.5109 103.712 19.4072C103.849 15.1065 106.678 12.5709 110.685 11.8483C113.198 11.3951 115.78 11.4341 118.276 12.2913C121.652 13.4512 123.635 15.9545 123.919 19.4889C123.981 20.2603 124.057 21.0305 124.138 21.9204C122.268 21.9204 120.525 21.9204 118.577 21.9204C118.577 21.39 118.605 20.8639 118.572 20.3416C118.449 18.382 117.553 17.2878 115.674 16.7285C114.108 16.262 112.578 16.366 111.051 16.9238C109.909 17.341 109.257 18.1573 109.15 19.3262C109.042 20.5004 109.568 21.4767 110.588 22.0448C111.348 22.4684 112.199 22.7738 113.046 22.9902C115.425 23.5979 117.862 24.0176 120.088 25.1096C120.92 25.5177 121.676 26.0809 122.55 26.6384Z" fill="white"/>
<path d="M132.05 12.7827C132.576 12.8013 132.961 12.82 133.444 12.8433C133.444 22.1308 133.444 31.3601 133.444 40.7988C132.572 40.7988 131.705 40.7988 130.837 40.7988C129.96 40.7988 129.083 40.7988 128.111 40.7988C128.111 31.4429 128.111 22.2135 128.111 12.7827C129.388 12.7827 130.649 12.7827 132.05 12.7827Z" fill="white"/>
<path d="M149.926 12.9107C152.638 13.0789 154.988 13.8067 156.903 15.6279C159.044 17.6627 159.763 20.2876 159.86 23.1094C159.944 25.5698 159.945 28.0378 159.86 30.4983C159.748 33.7628 158.816 36.6901 156.041 38.7552C154.231 40.1023 152.125 40.6674 149.961 40.7324C145.777 40.858 141.587 40.767 137.399 40.7603C137.26 40.76 137.12 40.7003 136.785 40.6236C136.785 39.8847 136.785 39.1144 136.785 38.3442C136.785 37.6144 136.785 36.8846 136.785 36.0404C138.027 36.0404 139.148 36.0404 140.231 36.0404C140.589 34.9172 140.713 20.3578 140.404 17.6801C139.267 17.6801 138.107 17.6801 136.87 17.6801C136.87 16.0089 136.87 14.5021 136.87 12.9161C137.089 12.8646 137.316 12.7658 137.543 12.7652C141.386 12.7549 145.229 12.7546 149.071 12.7617C149.312 12.7621 149.552 12.8422 149.926 12.9107ZM145.96 30.6084C145.96 32.267 145.96 33.9255 145.96 35.6279C147.425 35.6279 148.758 35.7904 150.036 35.5931C152.495 35.2133 153.933 33.7739 154.198 31.3124C154.438 29.0778 154.411 26.8111 154.431 24.5579C154.439 23.6345 154.34 22.693 154.15 21.7888C153.769 19.9663 152.67 18.6667 150.873 18.1517C149.322 17.7073 147.708 17.6504 145.96 17.886C145.96 22.0765 145.96 26.1947 145.96 30.6084Z" fill="white"/>
<path d="M163.265 28.1895C163.265 23.0223 163.265 18.003 163.265 12.918C169.29 12.918 175.188 12.918 181.281 12.918C181.356 14.5121 181.308 16.1115 181.309 17.8679C177.069 17.8679 172.905 17.8679 168.682 17.8679C168.682 20.0764 168.682 22.1286 168.682 24.2848C172.492 24.2848 176.227 24.2848 180.054 24.2848C180.054 25.9774 180.054 27.5665 180.054 29.2783C176.274 29.2783 172.548 29.2783 168.715 29.2783C168.715 31.4849 168.715 33.5724 168.715 35.7667C172.898 35.7667 177.068 35.7667 181.192 35.7667C181.661 36.8427 181.721 39.3097 181.34 40.7988C175.369 40.7988 169.381 40.7988 163.265 40.7988C163.265 36.6023 163.265 32.4699 163.265 28.1895Z" fill="white"/>
<path d="M184.931 21.4136C184.931 18.5119 184.931 15.7582 184.931 12.9436C188.351 12.9436 191.642 12.9436 195.077 12.9436C197.019 20.9256 198.696 29.0083 200.648 37.023C200.759 37.0061 200.869 36.9892 200.98 36.9723C200.98 29.0174 200.98 21.0626 200.98 12.9061C202.838 12.8548 204.581 12.89 206.437 12.8861C206.437 22.2291 206.437 31.4644 206.437 40.7984C203.092 40.7984 199.762 40.7984 196.259 40.7984C194.474 32.9885 192.677 25.1233 190.906 17.3716C190.663 17.2835 190.611 17.245 190.577 17.2572C190.538 17.2709 190.508 17.3268 190.488 17.3709C190.45 17.4579 190.406 17.5472 190.393 17.6395C190.373 17.7853 190.371 17.9342 190.371 18.0819C190.358 25.5746 190.345 33.0674 190.33 40.5602C190.33 40.6049 190.291 40.6495 190.223 40.7955C188.535 40.7955 186.798 40.7955 184.931 40.7955C184.931 34.3649 184.931 27.9633 184.931 21.4136Z" fill="white"/>
<path d="M217.855 30.5779C217.855 26.3477 217.855 22.2653 217.855 17.979C215.143 17.8257 212.505 17.9749 209.778 17.8825C209.778 16.2349 209.778 14.6491 209.778 12.9673C216.921 12.9673 224.035 12.9673 231.218 12.9673C231.218 14.5514 231.218 16.1186 231.218 17.867C228.679 17.867 226.104 17.867 223.332 17.867C223.32 19.9382 223.305 21.8377 223.299 23.7372C223.294 25.6085 223.298 27.4798 223.298 29.3511C223.298 31.2716 223.298 33.1922 223.298 35.1127C223.298 36.9785 223.298 38.8443 223.298 40.7984C221.495 40.7984 219.796 40.7984 217.878 40.7984C217.827 39.1413 217.863 37.4438 217.857 35.7489C217.85 34.0746 217.855 32.4002 217.855 30.5779Z" fill="white"/>
</svg>

<svg width="232" height="52" fill="none" xmlns="http://www.w3.org/2000/svg"><path d="M4.943 42.022.023 39.17v-1.288c0-7.789.019-15.578-.023-23.366-.005-1.016.298-1.56 1.202-2.074A1945.1 1945.1 0 0 0 21.525.702c.795-.465 1.386-.446 2.154.001 6.847 3.986 13.71 7.944 20.574 11.902.535.309.953.608.95 1.338-.02 6.406-.011 12.812-.011 19.373-.395-.156-.7-.24-.97-.39-1.55-.857-3.077-1.757-4.641-2.585-.864-.457-1.258-1.008-1.231-2.069.085-3.399.016-6.801.047-10.203.006-.72-.204-1.153-.855-1.525-4.954-2.829-9.885-5.698-14.943-8.624L6.903 17.008c-.018.346-.05.682-.05 1.018-.003 5.324.026 10.648-.027 15.972-.009.967.28 1.503 1.121 1.98 4.875 2.767 9.717 5.591 14.646 8.44.949-.55 1.907-1.048 2.802-1.64.83-.549 1.515-.622 2.42-.039 1.726 1.114 3.555 2.067 5.547 3.204-.617.382-1.014.641-1.423.88-2.763 1.608-5.547 3.184-8.284 4.837-.79.476-1.375.437-2.157-.022-5.47-3.215-10.97-6.381-16.555-9.616Z" fill="#fff"/><path d="M37.528 41.548c-4.7-2.702-9.289-5.38-13.915-7.99-.875-.493-1.304-1.004-1.24-2.058.098-1.62.073-3.252.006-4.875-.039-.938.183-1.537 1.1-1.979 1.23-.593 2.365-1.38 3.74-2.2l-4.655-2.737-4.866 2.812v13.662c-.39-.048-.698-.003-.913-.125-1.926-1.09-3.832-2.216-5.753-3.316-.484-.277-.659-.657-.656-1.207.015-4.09.017-8.178.002-12.267-.002-.561.202-.919.679-1.193 3.579-2.061 7.152-4.131 10.723-6.207.517-.3.975-.316 1.515-.001 3.569 2.08 7.15 4.139 10.737 6.187.502.287.631.67.625 1.213-.024 1.97-.04 3.942.006 5.911.017.716-.307 1.035-.884 1.35-1.406.77-2.771 1.616-4.41 2.583l15.909 9.222c-1.05.623-1.836 1.093-2.626 1.555-1.02.596-2.091 1.116-3.048 1.799-.755.538-1.34.435-2.076-.139ZM71.734 38.222c0-1.918.012-3.692-.003-5.467-.015-1.686-.528-2.215-2.202-2.23-2.213-.021-4.426-.005-6.803-.005v10.278h-5.432c-.318-1.017-.456-24.643-.149-27.817.349-.039.722-.115 1.095-.116 3.648-.009 7.298-.076 10.943.018 2.533.066 4.975.525 6.889 2.485 3.21 3.289 2.595 9.128-1.266 11.58-.268.17-.516.372-.75.542.057.148.068.23.094.235 2.266.46 3.16 2.028 3.2 4.153.053 2.857-.002 5.716-.018 8.575 0 .085-.077.17-.158.34h-5.44v-2.571ZM64.87 17.888l-2.124.034v7.534c2.226 0 4.377.011 6.527-.012.334-.004.673-.142.996-.257 1.43-.511 2.485-2.055 2.349-3.567-.196-2.168-1.195-3.297-2.767-3.495-1.55-.196-3.128-.167-4.98-.236ZM81.48 24.068v-11.13h18.065v4.922H87.24v6.46H98.39v5.027H87.208v6.494H99.74v4.957H81.68s-.047-.018-.075-.052c-.03-.036-.061-.087-.061-.132-.024-5.466-.045-10.932-.066-16.546ZM122.55 26.638c3.748 4.008 2.615 10.39-2.379 12.738-4.289 2.016-8.724 1.913-12.902-.464-2.731-1.554-3.971-4.133-4.17-7.227-.037-.588-.005-1.18-.005-1.873h5.38c.019.36.05.739.058 1.117.05 2.553 1.339 4.2 3.844 4.667 1.76.327 3.543.308 5.185-.585 1.623-.883 2.252-2.834 1.293-4.247-.365-.537-.955-1.037-1.554-1.274-1.225-.486-2.53-.771-3.796-1.16-1.828-.56-3.709-1-5.463-1.74-3.396-1.434-4.428-4.08-4.329-7.183.137-4.3 2.966-6.836 6.973-7.559 2.513-.453 5.095-.414 7.591.443 3.376 1.16 5.359 3.663 5.643 7.198.062.771.138 1.541.219 2.431h-5.561c0-.53.028-1.056-.005-1.578-.123-1.96-1.019-3.054-2.898-3.613-1.566-.467-3.096-.363-4.623.195-1.142.417-1.794 1.233-1.901 2.402-.108 1.174.418 2.15 1.438 2.719.76.423 1.611.729 2.458.945 2.379.608 4.816 1.028 7.042 2.12.832.408 1.588.97 2.462 1.528ZM132.05 12.783c.526.018.911.037 1.394.06V40.8h-5.333V12.783h3.939ZM149.926 12.91c2.712.169 5.062.897 6.977 2.718 2.141 2.035 2.86 4.66 2.957 7.481.084 2.46.085 4.929 0 7.39-.112 3.264-1.044 6.191-3.819 8.256-1.81 1.347-3.916 1.912-6.08 1.977-4.184.126-8.374.035-12.562.028-.139 0-.279-.06-.614-.136V36.04h3.446c.358-1.123.482-15.682.173-18.36h-3.534v-4.764c.219-.051.446-.15.673-.15 3.843-.011 7.686-.011 11.528-.004.241 0 .481.08.855.149Zm-3.966 17.698v5.02c1.465 0 2.798.162 4.076-.035 2.459-.38 3.897-1.82 4.162-4.28.24-2.235.213-4.502.233-6.755a13.018 13.018 0 0 0-.281-2.77c-.381-1.822-1.48-3.121-3.277-3.636-1.551-.445-3.165-.502-4.913-.266v12.722ZM163.265 28.19V12.917h18.016c.075 1.594.027 3.194.028 4.95h-12.627v6.417h11.372v4.993h-11.339v6.489h12.477c.469 1.076.529 3.543.148 5.032h-18.075v-12.61ZM184.931 21.414v-8.47h10.146c1.942 7.982 3.619 16.064 5.571 24.079l.332-.05V12.905c1.858-.051 3.601-.016 5.457-.02v27.912h-10.178l-5.353-23.426c-.243-.088-.295-.127-.329-.115-.039.014-.069.07-.089.114-.038.087-.082.176-.095.269-.02.145-.022.294-.022.442-.013 7.493-.026 14.985-.041 22.478 0 .045-.039.09-.107.235h-5.292V21.414ZM217.855 30.578V17.979c-2.712-.153-5.35-.004-8.077-.096v-4.916h21.44v4.9h-7.886c-.012 2.071-.027 3.97-.033 5.87-.005 1.872-.001 3.743-.001 5.614v11.447h-5.42c-.051-1.657-.015-3.354-.021-5.05-.007-1.673-.002-3.348-.002-5.17Z" fill="#fff"/></svg>
